src/icons/svg/computer.svg

<?xml version="1.0" encoding="UTF-8"?>
<svg width="40px" height="27px" viewBox="0 0 40 27" version="1.1" xmlns="http://www.w3.org/2000/svg"
>
    <path d="M33.3333333,23.3333333 C35.1666667,23.3333333 36.65,21.8333333 36.65,20 L36.6666667,3.33333333 C36.6666667,1.5 35.1666667,0 33.3333333,0 L6.66666667,0 C4.83333333,0 3.33333333,1.5 3.33333333,3.33333333 L3.33333333,20 C3.33333333,21.8333333 4.83333333,23.3333333 6.66666667,23.3333333 L0,23.3333333 L0,26.6666667 L40,26.6666667 L40,23.3333333 L33.3333333,23.3333333 Z M6.66666667,3.33333333 L33.3333333,3.33333333 L33.3333333,20 L6.66666667,20 L6.66666667,3.33333333 Z"
          id="形状"></path>
</svg>

<svg width="40" height="27" xmlns="http://www.w3.org/2000/svg"><path d="M33.333 23.333c1.834 0 3.317-1.5 3.317-3.333l.017-16.667C36.667 1.5 35.167 0 33.333 0H6.667a3.343 3.343 0 0 0-3.334 3.333V20c0 1.833 1.5 3.333 3.334 3.333H0v3.334h40v-3.334h-6.667zm-26.666-20h26.666V20H6.667V3.333z"/></svg>
